assets/roles/hacker.svg

<svg xmlns="http://www.w3.org/2000/svg" style="isolation:isolate" viewBox="-42.4 -748 1851.6 445.8"><path d="M-42.4-321.4V-730q0-14.4 19.8-14.4T-2.8-730v179.4h173.4V-730q0-14.4 19.8-14.4t19.8 14.4v408.6q0 7.2-6 11.4t-13.8 4.2q-8.4 0-14.1-4.2-5.7-4.2-5.7-11.4v-195H-2.8v195q0 7.2-6 11.4t-13.8 4.2q-8.4 0-14.1-4.2-5.7-4.2-5.7-11.4zm310.8-1.2q0-3 .6-4.2l125.4-407.4q4.2-13.8 23.4-13.8t24 13.8l124.8 407.4q0 .6.3 1.8.3 1.2.3 1.8 0 7.2-7.8 12.3-7.8 5.1-16.2 5.1-11.4 0-15-10.2l-27.6-92.4H334.64L306.8-316q-2.4 10.2-15.6 10.2-8.4 0-15.6-4.8-7.2-4.8-7.2-12zm149.4-361.8l-72.855 241.8H490.34L417.8-684.4zm202.8 253.8v-186q0-65.4 35.1-96.6 35.1-31.2 90.9-31.2 57 0 90.3 29.1t33.3 71.1q0 14.4-4.5 19.2-4.5 4.8-15.3 4.8-18.6 0-19.8-15-.6-9-2.4-17.4-1.8-8.4-7.2-18.9-5.4-10.5-14.1-18.3-8.7-7.8-24.3-12.9-15.6-5.1-36-5.1-86.4 0-86.4 91.2v186q0 91.8 88.8 91.8 25.2 0 42-6.9t24.6-20.1q7.8-13.2 10.5-22.5t4.5-24.3q1.8-15.6 19.8-15.6 10.8 0 15.3 5.1t4.5 19.5q0 42.6-33.9 72t-91.5 29.4q-55.2 0-89.7-31.2t-34.5-97.2zm318.6 109.2V-730q0-14.4 19.8-14.4t19.8 14.4v212.4l173.4-220.8q4.2-6 12.6-6 7.2 0 14.4 6.6t7.2 13.8q0 5.4-3 9l-129 160.2 147.6 222q2.4 4.8 2.4 7.8 0 7.8-7.2 14.1t-15.6 6.3q-8.4 0-15-9L1028-521.8l-49.2 62.4v138q0 7.2-6 11.4t-13.8 4.2q-8.4 0-14.1-4.2-5.7-4.2-5.7-11.4zm313.2 0v-408q0-7.2 5.4-11.1 5.4-3.9 12.6-3.9H1484q15 0 15 17.4 0 7.8-3.9 13.5t-11.1 5.7h-192v165h94.2q7.2 0 11.1 5.1 3.9 5.1 3.9 12.9 0 16.2-15 16.2H1292v166.2h192q6.6 0 10.8 5.4 4.2 5.4 4.2 13.2 0 18-15 18h-213.6q-7.2 0-12.6-4.2-5.4-4.2-5.4-11.4zm304.8 0V-730q0-13.2 15-14.4h106.2q58.2 0 93.9 27.6t35.7 90.6q0 99.6-93.6 115.8l92.4 177.6q2.4 3 2.4 7.8 0 7.8-7.2 14.1t-15.6 6.3q-10.8 0-21-21l-92.4-180h-76.2v184.2q0 7.2-6 11.4t-13.8 4.2q-8.4 0-14.1-4.2-5.7-4.2-5.7-11.4zm39.6-386.4v168h81.6q90 0 90-84.6 0-83.4-90-83.4h-81.6z" fill-rule="evenodd"/></svg>

<?xml version="1.0" standalone="no"?><!-- Generator: Gravit.io --><svg xmlns="http://www.w3.org/2000/svg" xmlns:xlink="http://www.w3.org/1999/xlink" style="isolation:isolate" viewBox="-42.4 -748 1851.6 445.8"><path d=" M -42.4 -321.4 L -42.4 -321.4 L -42.4 -730 L -42.4 -730 Q -42.4 -744.4 -22.6 -744.4 L -22.6 -744.4 L -22.6 -744.4 Q -2.8 -744.4 -2.8 -730 L -2.8 -730 L -2.8 -550.6 L 170.6 -550.6 L 170.6 -730 L 170.6 -730 Q 170.6 -744.4 190.4 -744.4 L 190.4 -744.4 L 190.4 -744.4 Q 210.2 -744.4 210.2 -730 L 210.2 -730 L 210.2 -321.4 L 210.2 -321.4 Q 210.2 -314.2 204.2 -310 L 204.2 -310 L 204.2 -310 Q 198.2 -305.8 190.4 -305.8 L 190.4 -305.8 L 190.4 -305.8 Q 182 -305.8 176.3 -310 L 176.3 -310 L 176.3 -310 Q 170.6 -314.2 170.6 -321.4 L 170.6 -321.4 L 170.6 -516.4 L -2.8 -516.4 L -2.8 -321.4 L -2.8 -321.4 Q -2.8 -314.2 -8.8 -310 L -8.8 -310 L -8.8 -310 Q -14.8 -305.8 -22.6 -305.8 L -22.6 -305.8 L -22.6 -305.8 Q -31 -305.8 -36.7 -310 L -36.7 -310 L -36.7 -310 Q -42.4 -314.2 -42.4 -321.4 Z  M 268.4 -322.6 L 268.4 -322.6 L 268.4 -322.6 Q 268.4 -325.6 269 -326.8 L 269 -326.8 L 394.4 -734.2 L 394.4 -734.2 Q 398.6 -748 417.8 -748 L 417.8 -748 L 417.8 -748 Q 437 -748 441.8 -734.2 L 441.8 -734.2 L 566.6 -326.8 L 566.6 -326.8 Q 566.6 -326.2 566.9 -325 L 566.9 -325 L 566.9 -325 Q 567.2 -323.8 567.2 -323.2 L 567.2 -323.2 L 567.2 -323.2 Q 567.2 -316 559.4 -310.9 L 559.4 -310.9 L 559.4 -310.9 Q 551.6 -305.8 543.2 -305.8 L 543.2 -305.8 L 543.2 -305.8 Q 531.8 -305.8 528.2 -316 L 528.2 -316 L 500.6 -408.4 L 334.64 -408.4 L 306.8 -316 L 306.8 -316 Q 304.4 -305.8 291.2 -305.8 L 291.2 -305.8 L 291.2 -305.8 Q 282.8 -305.8 275.6 -310.6 L 275.6 -310.6 L 275.6 -310.6 Q 268.4 -315.4 268.4 -322.6 Z  M 417.8 -684.4 L 344.945 -442.6 L 490.34 -442.6 L 417.8 -684.4 L 417.8 -684.4 Z  M 620.6 -430.6 L 620.6 -430.6 L 620.6 -616.6 L 620.6 -616.6 Q 620.6 -682 655.7 -713.2 L 655.7 -713.2 L 655.7 -713.2 Q 690.8 -744.4 746.6 -744.4 L 746.6 -744.4 L 746.6 -744.4 Q 803.6 -744.4 836.9 -715.3 L 836.9 -715.3 L 836.9 -715.3 Q 870.2 -686.2 870.2 -644.2 L 870.2 -644.2 L 870.2 -644.2 Q 870.2 -629.8 865.7 -625 L 865.7 -625 L 865.7 -625 Q 861.2 -620.2 850.4 -620.2 L 850.4 -620.2 L 850.4 -620.2 Q 831.8 -620.2 830.6 -635.2 L 830.6 -635.2 L 830.6 -635.2 Q 830 -644.2 828.2 -652.6 L 828.2 -652.6 L 828.2 -652.6 Q 826.4 -661 821 -671.5 L 821 -671.5 L 821 -671.5 Q 815.6 -682 806.9 -689.8 L 806.9 -689.8 L 806.9 -689.8 Q 798.2 -697.6 782.6 -702.7 L 782.6 -702.7 L 782.6 -702.7 Q 767 -707.8 746.6 -707.8 L 746.6 -707.8 L 746.6 -707.8 Q 660.2 -707.8 660.2 -616.6 L 660.2 -616.6 L 660.2 -430.6 L 660.2 -430.6 Q 660.2 -338.8 749 -338.8 L 749 -338.8 L 749 -338.8 Q 774.2 -338.8 791 -345.7 L 791 -345.7 L 791 -345.7 Q 807.8 -352.6 815.6 -365.8 L 815.6 -365.8 L 815.6 -365.8 Q 823.4 -379 826.1 -388.3 L 826.1 -388.3 L 826.1 -388.3 Q 828.8 -397.6 830.6 -412.6 L 830.6 -412.6 L 830.6 -412.6 Q 832.4 -428.2 850.4 -428.2 L 850.4 -428.2 L 850.4 -428.2 Q 861.2 -428.2 865.7 -423.1 L 865.7 -423.1 L 865.7 -423.1 Q 870.2 -418 870.2 -403.6 L 870.2 -403.6 L 870.2 -403.6 Q 870.2 -361 836.3 -331.6 L 836.3 -331.6 L 836.3 -331.6 Q 802.4 -302.2 744.8 -302.2 L 744.8 -302.2 L 744.8 -302.2 Q 689.6 -302.2 655.1 -333.4 L 655.1 -333.4 L 655.1 -333.4 Q 620.6 -364.6 620.6 -430.6 Z  M 939.2 -321.4 L 939.2 -321.4 L 939.2 -730 L 939.2 -730 Q 939.2 -744.4 959 -744.4 L 959 -744.4 L 959 -744.4 Q 978.8 -744.4 978.8 -730 L 978.8 -730 L 978.8 -517.6 L 1152.2 -738.4 L 1152.2 -738.4 Q 1156.4 -744.4 1164.8 -744.4 L 1164.8 -744.4 L 1164.8 -744.4 Q 1172 -744.4 1179.2 -737.8 L 1179.2 -737.8 L 1179.2 -737.8 Q 1186.4 -731.2 1186.4 -724 L 1186.4 -724 L 1186.4 -724 Q 1186.4 -718.6 1183.4 -715 L 1183.4 -715 L 1054.4 -554.8 L 1202 -332.8 L 1202 -332.8 Q 1204.4 -328 1204.4 -325 L 1204.4 -325 L 1204.4 -325 Q 1204.4 -317.2 1197.2 -310.9 L 1197.2 -310.9 L 1197.2 -310.9 Q 1190 -304.6 1181.6 -304.6 L 1181.6 -304.6 L 1181.6 -304.6 Q 1173.2 -304.6 1166.6 -313.6 L 1166.6 -313.6 L 1028 -521.8 L 978.8 -459.4 L 978.8 -321.4 L 978.8 -321.4 Q 978.8 -314.2 972.8 -310 L 972.8 -310 L 972.8 -310 Q 966.8 -305.8 959 -305.8 L 959 -305.8 L 959 -305.8 Q 950.6 -305.8 944.9 -310 L 944.9 -310 L 944.9 -310 Q 939.2 -314.2 939.2 -321.4 Z  M 1252.4 -321.4 L 1252.4 -321.4 L 1252.4 -729.4 L 1252.4 -729.4 Q 1252.4 -736.6 1257.8 -740.5 L 1257.8 -740.5 L 1257.8 -740.5 Q 1263.2 -744.4 1270.4 -744.4 L 1270.4 -744.4 L 1484 -744.4 L 1484 -744.4 Q 1499 -744.4 1499 -727 L 1499 -727 L 1499 -727 Q 1499 -719.2 1495.1 -713.5 L 1495.1 -713.5 L 1495.1 -713.5 Q 1491.2 -707.8 1484 -707.8 L 1484 -707.8 L 1292 -707.8 L 1292 -542.8 L 1386.2 -542.8 L 1386.2 -542.8 Q 1393.4 -542.8 1397.3 -537.7 L 1397.3 -537.7 L 1397.3 -537.7 Q 1401.2 -532.6 1401.2 -524.8 L 1401.2 -524.8 L 1401.2 -524.8 Q 1401.2 -508.6 1386.2 -508.6 L 1386.2 -508.6 L 1292 -508.6 L 1292 -342.4 L 1484 -342.4 L 1484 -342.4 Q 1490.6 -342.4 1494.8 -337 L 1494.8 -337 L 1494.8 -337 Q 1499 -331.6 1499 -323.8 L 1499 -323.8 L 1499 -323.8 Q 1499 -305.8 1484 -305.8 L 1484 -305.8 L 1270.4 -305.8 L 1270.4 -305.8 Q 1263.2 -305.8 1257.8 -310 L 1257.8 -310 L 1257.8 -310 Q 1252.4 -314.2 1252.4 -321.4 Z  M 1557.2 -321.4 L 1557.2 -321.4 L 1557.2 -730 L 1557.2 -730 Q 1557.2 -743.2 1572.2 -744.4 L 1572.2 -744.4 L 1678.4 -744.4 L 1678.4 -744.4 Q 1736.6 -744.4 1772.3 -716.8 L 1772.3 -716.8 L 1772.3 -716.8 Q 1808 -689.2 1808 -626.2 L 1808 -626.2 L 1808 -626.2 Q 1808 -526.6 1714.4 -510.4 L 1714.4 -510.4 L 1806.8 -332.8 L 1806.8 -332.8 Q 1809.2 -329.8 1809.2 -325 L 1809.2 -325 L 1809.2 -325 Q 1809.2 -317.2 1802 -310.9 L 1802 -310.9 L 1802 -310.9 Q 1794.8 -304.6 1786.4 -304.6 L 1786.4 -304.6 L 1786.4 -304.6 Q 1775.6 -304.6 1765.4 -325.6 L 1765.4 -325.6 L 1673 -505.6 L 1596.8 -505.6 L 1596.8 -321.4 L 1596.8 -321.4 Q 1596.8 -314.2 1590.8 -310 L 1590.8 -310 L 1590.8 -310 Q 1584.8 -305.8 1577 -305.8 L 1577 -305.8 L 1577 -305.8 Q 1568.6 -305.8 1562.9 -310 L 1562.9 -310 L 1562.9 -310 Q 1557.2 -314.2 1557.2 -321.4 Z  M 1596.8 -707.8 L 1596.8 -539.8 L 1678.4 -539.8 L 1678.4 -539.8 Q 1768.4 -539.8 1768.4 -624.4 L 1768.4 -624.4 L 1768.4 -624.4 Q 1768.4 -707.8 1678.4 -707.8 L 1678.4 -707.8 L 1596.8 -707.8 L 1596.8 -707.8 Z " fill-rule="evenodd" fill="rgb(0,0,0)"/></svg>
